X:004 
T:Ashmolean House (reel)
S:Donnelly < T.Gunn (composer)
F:file ID: cre.4/004ashmo_h
B:CRE4.200 (Teach Ashmolean)
L:1/8
Q:180
M:4/4
R:reel
K:D
AF~F2 EDB,A,|D2 (3FED AFFB|defd efdB|AFDE FEEF|
AF~F2 EDB,A,|D2 (3FED AFFB|ABde dBAF|A,B,DF EDD2:|
defg a2ab|afdf eBBA|defg a2ab|afdf feef|
fd~d2 ad~d2|edBd egfe|dBAF ABAF|A,B,DF EDD2:|

%%%

